modules/feathericon/icons/bar-chart.svg

<svg width="12" height="12" xmlns="http://www.w3.org/2000/svg"><path d="M0 4h1v7h11v1H0V4zm3-2h2v7H3V2zm3-2h2v9H6V0zm3 3h2v6H9V3z" fill="#000" fill-rule="evenodd"/></svg>

<?xml version="1.0" encoding="UTF-8"?>
<svg width="12px" height="12px" viewBox="0 0 12 12" version="1.1" xmlns="http://www.w3.org/2000/svg" xmlns:xlink="http://www.w3.org/1999/xlink">
    <!-- Generator: sketchtool 48.1 (47250) - http://www.bohemiancoding.com/sketch -->
    <title>bar-chart</title>
    <desc>Created with sketchtool.</desc>
    <defs></defs>
    <g id="web-app" stroke="none" stroke-width="1" fill="none" fill-rule="evenodd">
        <g id="bar-chart" fill="#000000">
            <path d="M1.39888101e-14,4 L1,4 L0.999999975,11 L12,11 L12,12 L1.39888101e-14,12 L1.39888101e-14,4 Z M3,2 L5,2 L5,9 L3,9 L3,2 Z M6,0 L8,0 L8,9 L6,9 L6,0 Z M9,3 L11,3 L11,9 L9,9 L9,3 Z" id="Shape"></path>
        </g>
    </g>
</svg>
